X: 4116
M: C|
L: 1/8
K: Em
|:\
|:\
g2(fg) edBd | d2(ed) Bdef |\
[1 g2(fg) edBd | egfd e2(ef) :|\
[2 gaba gfed | egfa gedB |]


